src/standard/hardware/it-optimization.svg

<svg xmlns="http://www.w3.org/2000/svg" viewBox="0 0 36 36">
  <path d="M18 9.62a.62.62 0 1 0-.62-.62.61.61 0 0 0 .62.62Z"/>
  <path d="M6 24.62h24a.61.61 0 0 0 .62-.62V9a.61.61 0 0 0-.62-.62h-9a.62.62 0 1 0 0 1.24h8.38v13.76H6.62V9.62H15a.62.62 0 0 0 0-1.24H6a.61.61 0 0 0-.62.62v15a.61.61 0 0 0 .62.62Zm26 1.76H4a.62.62 0 1 0 0 1.24h28a.62.62 0 1 0 0-1.24Z"/>
  <path d="M15.12 14v4.38h-1.24v-2.5a.63.63 0 0 0-1.26 0v2.5h-1.24v-1.26a.63.63 0 0 0-1.26 0v1.26H9.5a.62.62 0 0 0 0 1.24H17a.62.62 0 0 0 0-1.24h-.62V14a.63.63 0 0 0-1.26 0Zm5.38 3.12h.5a2.49 2.49 0 0 0 .3.73l-.32.33a.62.62 0 0 0 .88.88l.33-.32a2.49 2.49 0 0 0 .73.3v.46a.62.62 0 0 0 1.24 0V19a2.49 2.49 0 0 0 .73-.3l.33.32a.62.62 0 0 0 .88-.88l-.32-.33a2.49 2.49 0 0 0 .3-.73h.46a.62.62 0 0 0 0-1.24H26a2.49 2.49 0 0 0-.3-.73l.32-.33c.58-.56-.32-1.46-.88-.88l-.33.32a2.49 2.49 0 0 0-.73-.3v-.42a.62.62 0 0 0-1.24 0v.5a2.49 2.49 0 0 0-.73.3l-.33-.32c-.56-.58-1.46.32-.88.88l.32.33a2.49 2.49 0 0 0-.3.73h-.42a.62.62 0 0 0 0 1.2Zm3-2a1.38 1.38 0 0 1 0 2.75 1.38 1.38 0 0 1 0-2.75Z"/>
</svg>

<svg id="b3623736-741b-407b-840d-fcb9a5484222" data-name="Icon" xmlns="http://www.w3.org/2000/svg" viewBox="0 0 36 36">
  <path d="M18,9.62A.62.62,0,1,0,17.38,9,.61.61,0,0,0,18,9.62Z"/>
  <g>
    <path d="M6,24.62H30a.61.61,0,0,0,.62-.62V9A.61.61,0,0,0,30,8.38H21a.62.62,0,1,0,0,1.24h8.38V23.38H6.62V9.62H15a.62.62,0,0,0,0-1.24H6A.61.61,0,0,0,5.38,9V24A.61.61,0,0,0,6,24.62Z"/>
    <path d="M32,26.38H4a.62.62,0,1,0,0,1.24H32a.62.62,0,1,0,0-1.24Z"/>
    <path d="M15.12,14v4.38H13.88v-2.5a.63.63,0,0,0-1.26,0v2.5H11.38V17.12a.63.63,0,0,0-1.26,0v1.26H9.5a.62.62,0,0,0,0,1.24H17a.62.62,0,0,0,0-1.24h-.62V14a.63.63,0,0,0-1.26,0Z"/>
    <path d="M20.5,17.12H21a2.49,2.49,0,0,0,.3.73l-.32.33a.62.62,0,0,0,.88.88l.33-.32a2.49,2.49,0,0,0,.73.3v.46a.62.62,0,0,0,1.24,0V19a2.49,2.49,0,0,0,.73-.3l.33.32a.62.62,0,0,0,.88-.88l-.32-.33a2.49,2.49,0,0,0,.3-.73h.46a.62.62,0,0,0,0-1.24H26a2.49,2.49,0,0,0-.3-.73l.32-.33c.58-.56-.32-1.46-.88-.88l-.33.32a2.49,2.49,0,0,0-.73-.3V13.5a.62.62,0,0,0-1.24,0V14a2.49,2.49,0,0,0-.73.3l-.33-.32c-.56-.58-1.46.32-.88.88l.32.33a2.49,2.49,0,0,0-.3.73H20.5A.62.62,0,0,0,20.5,17.12Zm3-2a1.38,1.38,0,0,1,0,2.75A1.38,1.38,0,0,1,23.5,15.12Z"/>
  </g>
</svg>
